material/.icons/material/content-save-outline.svg

<svg xmlns="http://www.w3.org/2000/svg" viewBox="0 0 24 24"><path d="M17 3H5a2 2 0 00-2 2v14a2 2 0 002 2h14c1.1 0 2-.9 2-2V7l-4-4m2 16H5V5h11.17L19 7.83V19m-7-7c-1.66 0-3 1.34-3 3s1.34 3 3 3 3-1.34 3-3-1.34-3-3-3M6 6h9v4H6V6z"/></svg>

<?xml version="1.0" encoding="UTF-8"?><!DOCTYPE svg PUBLIC "-//W3C//DTD SVG 1.1//EN" "http://www.w3.org/Graphics/SVG/1.1/DTD/svg11.dtd"><svg xmlns="http://www.w3.org/2000/svg" xmlns:xlink="http://www.w3.org/1999/xlink" version="1.1" id="mdi-content-save-outline" width="24" height="24" viewBox="0 0 24 24"><path d="M17 3H5C3.89 3 3 3.9 3 5V19C3 20.1 3.89 21 5 21H19C20.1 21 21 20.1 21 19V7L17 3M19 19H5V5H16.17L19 7.83V19M12 12C10.34 12 9 13.34 9 15S10.34 18 12 18 15 16.66 15 15 13.66 12 12 12M6 6H15V10H6V6Z" /></svg>
